icons/superscript-2.svg

<svg viewBox="0 0 24 24" fill="currentColor" xmlns="http://www.w3.org/2000/svg">
    <path d="M11 7V20H9V7H3V5H15V7H11ZM19.5507 6.5803C19.7042 6.43453 19.8 6.22845 19.8 6C19.8 5.55817 19.4418 5.2 19 5.2C18.5582 5.2 18.2 5.55817 18.2 6C18.2 6.07624 18.2107 6.14999 18.2306 6.21983L17.0765 6.54958C17.0267 6.37497 17 6.1906 17 6C17 4.89543 17.8954 4 19 4C20.1046 4 21 4.89543 21 6C21 6.57273 20.7593 7.08923 20.3735 7.45384L18.7441 9H21V10H17V9L19.5507 6.5803V6.5803Z"/>
</svg>

<svg xmlns="http://www.w3.org/2000/svg" viewBox="0 0 24 24">
    <g>
        <path fill="none" d="M0 0h24v24H0z"/>
        <path d="M11 7v13H9V7H3V5h12v2h-4zm8.55-.42a.8.8 0 1 0-1.32-.36l-1.154.33A2.001 2.001 0 0 1 19 4a2 2 0 0 1 1.373 3.454L18.744 9H21v1h-4V9l2.55-2.42z"/>
    </g>
</svg>
